svg/sport/backboard_line.svg

<?xml version="1.0" encoding="UTF-8"?>
<svg width="24px" height="24px" viewBox="0 0 24 24" version="1.1" xmlns="http://www.w3.org/2000/svg" xmlns:xlink="http://www.w3.org/1999/xlink">
    <title>backboard_line</title>
    <g id="Icon" stroke="none" stroke-width="1" fill="none" fill-rule="evenodd">
        <g id="Sport" transform="translate(-240.000000, 0.000000)" fill-rule="nonzero">
            <g id="backboard_line" transform="translate(240.000000, 0.000000)">
                <path d="M24,0 L24,24 L0,24 L0,0 L24,0 Z M12.5935,23.2578 L12.5819,23.2595 L12.5109,23.295 L12.4919,23.2987 L12.4767,23.295 L12.4057,23.2595 C12.3958,23.2564 12.387,23.259 12.3821,23.2649 L12.378,23.2758 L12.3609,23.7031 L12.3659,23.7235 L12.3769,23.7357 L12.4805,23.8097 L12.4953,23.8136 L12.5071,23.8097 L12.6107,23.7357 L12.6233,23.7197 L12.6267,23.7031 L12.6096,23.2758 C12.6076,23.2657 12.601,23.2593 12.5935,23.2578 Z M12.8584,23.1453 L12.8445,23.1473 L12.6598,23.2397 L12.6499,23.2499 L12.6472,23.2611 L12.6651,23.6906 L12.6699,23.7034 L12.6784,23.7105 L12.8793,23.8032 C12.8914,23.8069 12.9022,23.803 12.9078,23.7952 L12.9118,23.7812 L12.8777,23.1665 C12.8753,23.1546 12.8674,23.147 12.8584,23.1453 Z M12.143,23.1473 C12.1332,23.1424 12.1222,23.1453 12.1156,23.1526 L12.1099,23.1665 L12.0758,23.7812 C12.0751,23.7927 12.0828,23.8019 12.0926,23.8046 L12.1083,23.8032 L12.3092,23.7105 L12.3186,23.7024 L12.3225,23.6906 L12.3404,23.2611 L12.3372,23.2485 L12.3278,23.2397 L12.143,23.1473 Z" id="MingCute"></path>
                <path d="M8,13 L16,13 C16.5523,13 17,13.4477 17,14 C17,14.5523 16.5523,15 16,15 L15.8471,15 L14.9864,20.1644 C14.9248,20.5339 14.6619,20.838 14.3052,20.9523 C13.9485,21.0666 13.5578,20.972 13.2929,20.7071 L13,20.4142 L12.7071,20.7071 C12.3166,21.0976 11.6834,21.0976 11.2929,20.7071 L11,20.4142 L10.7071,20.7071 C10.4422,20.972 10.0515,21.0666 9.69482,20.9523 C9.3381,20.838 9.07519,20.5339 9.01361,20.1644 L8.15287,15 L8,15 C7.44772,15 7,14.5523 7,14 C7,13.4477 7.44772,13 8,13 Z M13.8195,15 L10.1805,15 L10.6887,18.0495 C11.0353,17.9362 11.4316,18.0174 11.7071,18.2929 L12,18.5858 L12.2929,18.2929 C12.5684,18.0174 12.9647,17.9362 13.3113,18.0495 L13.8195,15 Z M20,4 C21.0543909,4 21.9181678,4.81587733 21.9945144,5.85073759 L22,6 L22,16 C22,17.0543909 21.18415,17.9181678 20.1492661,17.9945144 L20,18 L18,18 C17.4477,18 17,17.5523 17,17 C17,16.48715 17.386027,16.0644908 17.8833761,16.0067275 L18,16 L20,16 L20,6 L4,6 L4,16 L6,16 C6.55228,16 7,16.4477 7,17 C7,17.51285 6.61395571,17.9355092 6.11662025,17.9932725 L6,18 L4,18 C2.94563773,18 2.08183483,17.18415 2.00548573,16.1492661 L2,16 L2,6 C2,4.94563773 2.81587733,4.08183483 3.85073759,4.00548573 L4,4 L20,4 Z M15,8 C15.51285,8 15.9355092,8.38604429 15.9932725,8.88337975 L16,9 L16,11 C16,11.5523 15.5523,12 15,12 C14.48715,12 14.0644908,11.613973 14.0067275,11.1166239 L14,11 L14,10 L10,10 L10,11 C10,11.5523 9.55228,12 9,12 C8.48716857,12 8.06449347,11.613973 8.0067278,11.1166239 L8,11 L8,9 C8,8.48716857 8.38604429,8.06449347 8.88337975,8.0067278 L9,8 L15,8 Z" id="形状" fill="#09244B"></path>
            </g>
        </g>
    </g>
</svg>

<svg xmlns="http://www.w3.org/2000/svg" width="24" height="24"><g fill="none" fill-rule="nonzero"><path d="M24 0v24H0V0h24ZM12.594 23.258l-.012.002-.071.035-.02.004-.014-.004-.071-.036c-.01-.003-.019 0-.024.006l-.004.01-.017.428.005.02.01.013.104.074.015.004.012-.004.104-.074.012-.016.004-.017-.017-.427c-.002-.01-.009-.017-.016-.018Zm.264-.113-.014.002-.184.093-.01.01-.003.011.018.43.005.012.008.008.201.092c.012.004.023 0 .029-.008l.004-.014-.034-.614c-.003-.012-.01-.02-.02-.022Zm-.715.002a.023.023 0 0 0-.027.006l-.006.014-.034.614c0 .012.007.02.017.024l.015-.002.201-.093.01-.008.003-.011.018-.43-.003-.012-.01-.01-.184-.092Z"/><path fill="#09244B" d="M8 13h8a1 1 0 1 1 0 2h-.153l-.86 5.164a1 1 0 0 1-1.694.543L13 20.414l-.293.293a1 1 0 0 1-1.414 0L11 20.414l-.293.293a1 1 0 0 1-1.693-.543L8.153 15H8a1 1 0 1 1 0-2Zm5.82 2h-3.64l.509 3.05a1 1 0 0 1 1.018.243l.293.293.293-.293a1 1 0 0 1 1.018-.244L13.82 15ZM20 4a2 2 0 0 1 1.995 1.85L22 6v10a2 2 0 0 1-1.85 1.995L20 18h-2a1 1 0 0 1-.117-1.993L18 16h2V6H4v10h2a1 1 0 0 1 .117 1.993L6 18H4a2 2 0 0 1-1.995-1.85L2 16V6a2 2 0 0 1 1.85-1.995L4 4h16Zm-5 4a1 1 0 0 1 .993.883L16 9v2a1 1 0 0 1-1.993.117L14 11v-1h-4v1a1 1 0 0 1-1.993.117L8 11V9a1 1 0 0 1 .883-.993L9 8h6Z"/></g></svg>
